icons/midnadark/actions/24/media-random-tracks-amarok.svg

<?xml version="1.0" encoding="UTF-8" standalone="no"?>
<!-- Created with Inkscape (http://www.inkscape.org/) -->

<svg
   xmlns:dc="http://purl.org/dc/elements/1.1/"
   xmlns:cc="http://creativecommons.org/ns#"
   xmlns:rdf="http://www.w3.org/1999/02/22-rdf-syntax-ns#"
   xmlns:svg="http://www.w3.org/2000/svg"
   xmlns="http://www.w3.org/2000/svg"
   xmlns:sodipodi="http://sodipodi.sourceforge.net/DTD/sodipodi-0.dtd"
   xmlns:inkscape="http://www.inkscape.org/namespaces/inkscape"
   width="22"
   height="22"
   id="svg3049"
   version="1.1"
   inkscape:version="0.91 r13725"
   sodipodi:docname="media-random-tracks-amarok.svg"
   inkscape:export-filename="/home/uri/.kde/share/icons/NITRUX-KDE/16x16/actions/view-right-new.png"
   inkscape:export-xdpi="30"
   inkscape:export-ydpi="30">
  <defs
     id="defs3051" />
  <sodipodi:namedview
     id="base"
     pagecolor="#ffffff"
     bordercolor="#666666"
     borderopacity="1.0"
     inkscape:pageopacity="0.0"
     inkscape:pageshadow="2"
     inkscape:zoom="11.313709"
     inkscape:cx="-20.877044"
     inkscape:cy="15.268512"
     inkscape:document-units="px"
     inkscape:current-layer="layer1"
     showgrid="true"
     fit-margin-top="0"
     fit-margin-left="0"
     fit-margin-right="0"
     fit-margin-bottom="0"
     inkscape:window-width="1366"
     inkscape:window-height="633"
     inkscape:window-x="0"
     inkscape:window-y="33"
     inkscape:window-maximized="1"
     inkscape:showpageshadow="false"
     borderlayer="true"
     showguides="true">
    <sodipodi:guide
       position="2.0000044,20.00003"
       orientation="18,0"
       id="guide4067" />
    <sodipodi:guide
       position="2.0000044,2.0000296"
       orientation="0,18"
       id="guide4069" />
    <sodipodi:guide
       position="20.000004,2.0000296"
       orientation="-18,0"
       id="guide4071" />
    <sodipodi:guide
       position="20.000004,20.00003"
       orientation="0,-18"
       id="guide4073" />
    <sodipodi:guide
       position="3.0000044,19.00003"
       orientation="16,0"
       id="guide4077" />
    <sodipodi:guide
       position="3.0000044,3.0000296"
       orientation="0,16"
       id="guide4079" />
    <sodipodi:guide
       position="19.000004,3.0000296"
       orientation="-16,0"
       id="guide4081" />
    <sodipodi:guide
       position="19.000004,19.00003"
       orientation="0,-16"
       id="guide4083" />
    <inkscape:grid
       type="xygrid"
       id="grid4085" />
  </sodipodi:namedview>
  <metadata
     id="metadata3054">
    <rdf:RDF>
      <cc:Work
         rdf:about="">
        <dc:format>image/svg+xml</dc:format>
        <dc:type
           rdf:resource="http://purl.org/dc/dcmitype/StillImage" />
        <dc:title />
      </cc:Work>
    </rdf:RDF>
  </metadata>
  <g
     inkscape:label="Capa 1"
     inkscape:groupmode="layer"
     id="layer1"
     transform="translate(-421.71429,-525.79074)">
    <g
       id="g4146"
       style="fill:#ffffff;fill-opacity:1">
      <path
         id="path4174"
         transform="translate(421.71429,525.79074)"
         d="M 4.5 3 C 3.6715787 3 3.0000083 3.6715704 3 4.5 C 3.0000083 5.3284296 3.6715787 6 4.5 6 C 5.3284213 6 5.9999917 5.3284296 6 4.5 C 5.9999917 3.6715704 5.3284213 3 4.5 3 z M 7 4 L 7 5 L 8 5 L 8 4 L 7 4 z M 9 4 L 9 5 L 19 5 L 19 4 L 9 4 z M 9 6 L 9 7 L 12 7 L 12 6 L 9 6 z M 4.5 9 C 3.6715732 8.9999988 3 9.6715721 3 10.5 C 3 11.328428 3.6715732 12.000001 4.5 12 C 5.3284268 12.000001 6 11.328428 6 10.5 C 6 9.6715721 5.3284268 8.9999988 4.5 9 z M 4.5 15 C 3.6715732 14.999999 3 15.671572 3 16.5 C 3 17.328428 3.6715732 18.000001 4.5 18 C 5.3284268 18.000001 6 17.328428 6 16.5 C 6 15.671572 5.3284268 14.999999 4.5 15 z "
         style="opacity:1;fill:#ffffff;fill-opacity:1;stroke:none" />
      <g
         inkscape:label="Capa 1"
         id="layer1-4"
         transform="translate(5,1)"
         style="fill:#ffffff;fill-opacity:1">
        <path
           style="fill:#ffffff;fill-opacity:1;fill-rule:evenodd;stroke:none"
           d="m 433.71429,535.79074 0,1 -2.18555,0 -1.81445,2.2383 -1.81445,-2.2383 -3.18555,0 0,1 2.75977,0 c -9.5e-4,0.01 0.83579,1.046 1.61132,2.0137 l -1.61132,1.9863 -2.75977,0 0,1 3.23828,0 c 0,0 0.89312,-1.1189 1.76172,-2.2012 0.86877,1.0823 1.76172,2.2012 1.76172,2.2012 l 2.23828,0 0,1 2,-1.5 -2,-1.5 0,1 -1.75977,0 -1.61132,-1.9863 c 0.77538,-0.9677 1.61227,-2.0058 1.61132,-2.0137 l 1.75977,0 0,1 2,-1.5 z"
           id="rect4155-8"
           inkscape:connector-curvature="0"
           sodipodi:nodetypes="ccccccccccccccccccccccccccc" />
      </g>
      <rect
         y="535.79071"
         x="428.71429"
         height="1"
         width="1"
         id="rect4154"
         style="fill:#ffffff;fill-opacity:1;stroke:none" />
    </g>
  </g>
</svg>

<svg xmlns="http://www.w3.org/2000/svg" viewBox="0 0 22 22"><g transform="translate(-421.71-525.79)" fill="#fff"><path transform="translate(421.71 525.79)" d="m4.5 3c-.828 0-1.5.672-1.5 1.5 0 .828.672 1.5 1.5 1.5.828 0 1.5-.672 1.5-1.5 0-.828-.672-1.5-1.5-1.5m2.5 1v1h1v-1h-1m2 0v1h10v-1h-10m0 2v1h3v-1h-3m-4.5 3c-.828 0-1.5.672-1.5 1.5 0 .828.672 1.5 1.5 1.5.828 0 1.5-.672 1.5-1.5 0-.828-.672-1.5-1.5-1.5m0 6c-.828 0-1.5.672-1.5 1.5 0 .828.672 1.5 1.5 1.5.828 0 1.5-.672 1.5-1.5 0-.828-.672-1.5-1.5-1.5"/><path d="m433.71 535.79v1h-2.186l-1.814 2.238-1.814-2.238h-3.186v1h2.76c-.0001.001.836 1.046 1.611 2.01l-1.611 1.986h-2.76v1h3.238c0 0 .893-1.119 1.762-2.201.869 1.082 1.762 2.201 1.762 2.201h2.238v1l2-1.5-2-1.5v1h-1.76l-1.611-1.986c.775-.968 1.612-2.01 1.611-2.01h1.76v1l2-1.5z" fill-rule="evenodd" transform="translate(5 1)"/><path d="m428.71 535.79h1v1h-1z"/></g></svg>
